Hatter-kde/emblems/16/vcs-locally-modified.svg

<svg xmlns="http://www.w3.org/2000/svg" viewBox="0 0 16 16">
 <path 
     style="fill:#f47750;fill-opacity:1;stroke:none" 
     d="M 8 1 A 7 7 0 0 0 1 8 A 7 7 0 0 0 8 15 A 7 7 0 0 0 15 8 A 7 7 0 0 0 8 1 z "
     />
 <path 
     style="fill:#ffffff;fill-opacity:1;stroke:none" 
     d="M 8 4 L 8 6 L 6.5800781 6 C 4.4324271 6 3 6.7511 3 9 C 3 11.3399 6 12 6 12 C 6 12 4.3097549 10.552231 4.6230469 9.5820312 C 4.8849889 8.7708312 5.960384 8 6.9375 8 L 8 8 L 8 10 L 13 7 L 8 4 z "
     />
</svg>

<?xml version="1.0" encoding="UTF-8"?>
<svg viewBox="0 0 16 16" xmlns="http://www.w3.org/2000/svg">
 <path d="m8 1a7 7 0 0 0-7 7 7 7 0 0 0 7 7 7 7 0 0 0 7-7 7 7 0 0 0-7-7z" fill="#f47750"/>
 <path d="m8 4v2h-1.4199c-2.1477 0-3.5801 0.7511-3.5801 3 0 2.3399 3 3 3 3s-1.6902-1.4478-1.377-2.418c0.26194-0.8112 1.3373-1.582 2.3145-1.582h1.0625v2l5-3-5-3z" fill="#fff"/>
</svg>
